!!!COM: Ludwig van Beethoven
!!!CNT: Deutsch
!!!TXO: Deutsch
!!!OTL: "Neue Liebe, neues Leben"
!!!LYR: Goethe, Johann Wolfgang
!!!OPS: Op. 75
!!!ONM: No. 2
!!!ENC: Amanda Harris
!!!YOR: Sa2mtliche Lieder, Band 1
!!!YOR: G. Henle Verlag
!!!ODT: 1809/
!!NB: Vocal melody and text encoded.
**kern	**silbe
*clefG2	*
*k[]	*
*M6/8	*
*MM[lebhaft, doch nich zu sehr]	*
=	=
4r	.
8r	.
{4g	{Herz,
8g	mein
=1	=1
4e	Herz,
8e	was
4g	soll
8g	das
=2	=2
4cc	ge-
8cc	-ben?
4cc	Was
8cc	be-
=3	=3
4g	-dra2n-
8g	-get
4cc	dich
8cc	so
=4	=4
4.ee}	sehr?}
{4ee	{Welch
8ee	ein
=5	=5
4ff	frem-
8ee	-des,
4ee	neu-
8b	-es
=6	=6
4cc	Le-
8cc	-ben?
4cc	Ich
8cc	er-
=7	=7
4b	-ken-
8b	-ne
4dd	dich
8g#	nicht
=8	=8
4.a}	mehr.}
{4ee	{Weg
8dd	ist
=9	=9
4cc#	al-
8cc#	-les,
8cc#	was
8b	|
8cc#	du
=10	=10
4ee	lieb-
8dd	-test,
4dd	weg,
8ccn	wa-
=11	=11
4b	-rum
8b	du
8b	dich
8a	|
8b	be-
=12	=12
4dd	-tru2b-
8cc	-test,
4cc	weg
16dd	dein
16ee	|
=13	=13
4ff	Fleiss
8ff	und
4b	dei-
8b	-ne
=14	=14
4.cc}	Ruh'}
4r	.
8r	.
=17	=17
4r	.
8r	.
{4cc	{ach,
8cc	wie
=18	=18
4cc	kamst
8b	du
4cc	nur
8dd	da-
=19	=19
4.b	-zu?
4r	.
16g	wie
16cc	|
=20	=20
4cc	kamst
8dd	du
4ee	nur
8ff#	da-
=21	=21
4.gg}	-zu?}
4r	.
8r	.
=23	=23
4r	.
8r	.
{4a	{Fes-
8a	-selt
=24	=24
8a	dich
8dd	|
8dd	die
4dd	Ju-
8cc	-gend-
=25	=25
4cc	-blu2-
8b}	-te,}
4r	.
8r	.
=27	=27
4r	.
8r	.
{4a	{die-
8a	-se
=28	=28
8a	lieb-
8dd	|
8dd	-li-
4dd	-che
8cc	Ge-
=29	=29
4cc	-stalt,
8b	|
[4.gg	die-
=30	=30
4.gg]	|
4.ff#	-ser
=31	=31
8ff#	Blick
4ee	|
8r	.
8r	.
8ee	voll
=32	=32
8ee	Treu'
4dd	|
8r	.
8r	.
8dd	und
=33	=33
4dd	Gu2-
8cc#	-te
4cc#	mit
8cc#	un-
=34	=34
4ee	-end-
8ee	-li-
4gg	-cher
8cc#	Ge-
=35	=35
4.dd}	-walt?}
4r	.
8r	.
=37	=37
4r	.
8r	.
8r	.
{8dd	{Will
8dd	ich
=38	=38
4gg	rasch
8dd	mich
4b	ihr
8g	ent-
=39	=39
4g	-zie-
8f#	-hen,
8r	.
8dd	mich
8dd	er-
=40	=40
4gg	-man-
8dd	-nen,
4b	ihr
8g	ent-
=41	=41
4g	-flie-
8f#	-hen,
4g	fu2h-
8g	-ret
=42	=42
4g	mich
8g	im
4g#	Au-
8g#	-gen-
=43	=43
4.a	-blick,
4a	ach!
8a	mein
=44	=44
4b	Weg
8b	zu
4b	ihr
8b	zu-
=45	=45
8dd	-ru2ck,
4.cc}	|}
8r	.
8r	.
=46	=46
4r	.
8r	.
{4.cc#	{zu
=47	=47
4.dd	ihr,
[4.ccn	|
=48	=48
4.cc]	|
4.b	zu
=49	=49
4b	ihr
8a	|
4cc	mein
8ee	|
=50	=50
4ee	Weg
8gn	|
4b	zu
8a	|
=51	=51
4g}	ru2ck}
8r	.
4r	.
8r	.
=52	=52
4r	.
8r	.
{4f#	{Herz,
8f#	mein
=53	=53
4g}	Herz}
8r	.
4r	.
8r	.
=54	=54
8r	.
8r	.
{8g	{was
4cc	soll
8cc	das
=55	=55
8b	ge-
8g	|
[8g	-ben?
4.g_	|
=56	=56
4.g]}	|}
{4g	{Herz,
8g	mein
=57	=57
4e	Herz,
8e	was
4g	soll
8g	das
=58	=58
4cc	ge-
8cc	-ben?
4cc	Was
8cc	be-
=59	=59
4g	-dra2n-
8g	-get
4cc	dich
8cc	so
=60	=60
4.ee	sehr?
4ee	Welch
8ee	ein
=61	=61
4ffn	frem-
8ee	-des,
4ee	neu-
8b	-es
=62	=62
4cc	Le-
8cc	-ben?
4cc	Ich
8cc	er-
=63	=63
4b	-ken-
8b	-ne
4dd	dich
8g#	nicht
=64	=64
4.a}	mehr.}
{4ee	{Weg
8dd	ist
=65	=65
4cc#	al-
8cc#	-les,
8cc#	was
8b	|
8cc#	du
=66	=66
4ee	lieb-
8dd	-test,
4dd	weg,
8ccn	wa-
=67	=67
4b	-rum
8b	du
8b	dich
8a	|
8b	be-
=68	=68
4dd	-tru2b-
8cc	-test,
4cc	weg
16dd	dein
16ee	|
=69	=69
4ff	Fleiss
8ff	und
4b	dei-
8b	-ne
=70	=70
4.cc}	Ruh'}
4r	.
8r	.
=73	=73
*MM[langsam]	*
4r	.
8r	.
{4a	{ach,
8a	wie
=74	=74
4a	kamst
8a	du
8bn	nur
8a	|
8b	da-
=75	=75
4.cc	-zu?
8r	.
8r	.
16cc	wie
16ff	|
=76	=76
4ff	kamst
8dd	du
4a	nur
8b	da-
=77	=77
*MM[im vorigen Zeitmasse]	*
4.cc}	-zu?}
4r	.
8r	.
=79	=79
4r	.
8r	.
{4g	{Fes-
8g	-selt
=80	=80
8g	dich
8cc	|
8cc	die
4cc	Ju-
8b-	-gend-
=81	=81
4b-	-blu2-
8a}	-te,}
4r	.
8r	.
=83	=83
4r	.
8r	.
{4g	{die-
8g	-se
=84	=84
8g	lieb-
8cc	|
8cc	-li-
4cc	-che
8b-	Ge-
=85	=85
4b-	-stalt,
8a	|
[4.ff	die-
=86	=86
4.ff]	|
4.ee	ser
=87	=87
8ee	Blick
4dd	|
8r	.
8r	.
8dd	voll
=88	=88
8dd	Treu'
4cc	|
8r	.
8r	.
8cc	und
=89	=89
4cc	Gu2-
8bn	-te
4b	mit
8b	un-
=90	=90
4cc	-end-
8cc	-lich-
4ee	-er
8cc	Ge-
=91	=91
[2.gg	-walt?
=92	=92
2.gg_	|
=93	=93
4.gg]}	|}
8r	.
{8g	{Will
8g	ich
=94	=94
4cc	rasch
8g	mich
4ee	ihr
8cc	ent-
=95	=95
4cc	-zie-
8b	-hen,
8r	.
8g	mich
8g	er-
=96	=96
4cc	-man-
8g	-nen,
4ee	ihr
8cc	ent-
=97	=97
4cc	-flie-
8b	-hen,
4cc	fu2h-
8cc	-ret
=98	=98
4cc	mich
8cc	im
4g#	Au-
8g#	-gen-
=99	=99
4.a}	-blick,}
{8a	{ach!
8ff	|
8dd	mein
=100	=100
4cc	Weg
8cc	zu
4dd	ihr
8dd	zu-
=101	=101
4.ee	-ru2ck,
4ee	fu2h-
8ee	-ret
=102	=102
4ee	mich
8ee	im
4ee	Au-
8ee	-gen-
=103	=103
8gg	-blick
4.ff}	|}
8r	.
8r	.
=104	=104
4r	.
8r	.
{4.ff#	{zu
=105	=105
4.gg	ihr,
[4.ffn	|
=106	=106
4.ffn]	|
4.ee	zu
=107	=107
4ee	ihr
8dd	|
4ff	mein
8aa	|
=108	=108
4aa	Weg
8cc	|
4ee	zu-
8dd	|
=109	=109
4.cc}	-ru2ck.}
4r	.
8r	.
=110	=110
4r	.
8r	.
{4g	{Und
8g	an
=111	=111
4ee	die-
8ee	-sem
8ee	Zau-
8dd	|
8cc	-ber-
=112	=112
4b	-fa2d-
8b	-chen,
8b	das
8a	|
8b	sich
=113	=113
4cc	nicht
8cc	zer-
8cc	-rei-
8b	|
8cc	-ssen
=114	=114
4.dd}	la2sst,}
{4g	{ha2lt
8g	das
=115	=115
4ee	lie-
8ee	-be,
8ee	lo-
8dd	|
8cc	se
=116	=116
8b	Ma2d-
8ff	|
8ee	-chen
8dd	mich
8cc	|
8b	so
=117	=117
8cc	wi-
8gg	|
8ff	-der
8ee	Wil-
8dd	|
8cc#	-len
=118	=118
4.dd}	fest;}
{4ccn	{muss
8cc	in
=119	=119
4dd	ih-
8dd	-rem
4dd	Zau-
8dd	-ber-
=120	=120
4ee	-krei-
8cc	-se
4cc	le-
8cc	-ben
=121	=121
4dd	nun
8dd	auf
8dd	ih-
8cc	|
8dd	-re
=122	=122
2.ee	Wei-
=123	=123
4cc}	-se.}
8r	.
{4ee	{Die
8dd	Ver-
=124	=124
4cc#	-a2nd-
8b	-rung,
4a	ach,
8ee	wie
=125	=125
4.ff	gross!
4ee	Lie-
8dd	-be!
=126	=126
4cc	Lie-
8cc	-be,
4dd	lass
8b	mich
=127	=127
4.ee}	los!}
{4ff	{lass,
8dd	|
=128	=128
4ee	lass,
8cc	|
4dd	lass
8b	mich
=129	=129
4.ee	los!
4ff	lass,
8dd	|
=130	=130
4ee	lass
8cc	|
[4.gg	|
=131	=131
4.gg_	|
4gg]	|
8b	mich
=132	=132
4cc}	los!}
8r	.
4r	.
8r	.
*-	*-
